X:314
T:Road to Rio
Z: id:dc-reel-292
M:C
L:1/8
K:G Major
GE|DEGA BABd|egg2 agef|gede gedB|AcBA GEE2|!
DEGA BABd|egg2 agef|gede gedB|AcBA G2:|!
Bc|dgg2 bgg2|bgag edBd|eBB2 GABd|e2dB AGEG|!
DEGA BABd|egg2 agef|gede gedB|AcBA G2:|!